storage/app/icons/phosphoricons/fill/text-align-left-fill.svg

<svg xmlns="http://www.w3.org/2000/svg" fill="currentColor" viewBox="0 0 256 256"><path d="M208 32H48a16 16 0 0 0-16 16v160a16 16 0 0 0 16 16h160a16 16 0 0 0 16-16V48a16 16 0 0 0-16-16m-48 152H64a8 8 0 0 1 0-16h96a8 8 0 0 1 0 16m32-32H64a8 8 0 0 1 0-16h128a8 8 0 0 1 0 16M56 112a8 8 0 0 1 8-8h96a8 8 0 0 1 0 16H64a8 8 0 0 1-8-8m136-24H64a8 8 0 0 1 0-16h128a8 8 0 0 1 0 16"/></svg>

<svg xmlns="http://www.w3.org/2000/svg" viewBox="0 0 256 256" fill="currentColor"><path d="M208,32H48A16,16,0,0,0,32,48V208a16,16,0,0,0,16,16H208a16,16,0,0,0,16-16V48A16,16,0,0,0,208,32ZM160,184H64a8,8,0,0,1,0-16h96a8,8,0,0,1,0,16Zm32-32H64a8,8,0,0,1,0-16H192a8,8,0,0,1,0,16ZM56,112a8,8,0,0,1,8-8h96a8,8,0,0,1,0,16H64A8,8,0,0,1,56,112ZM192,88H64a8,8,0,0,1,0-16H192a8,8,0,0,1,0,16Z"/></svg>
